src/icons/svg/time.svg

<svg t="1629174197644" class="icon" viewBox="0 0 1024 1024" version="1.1" xmlns="http://www.w3.org/2000/svg" p-id="19527" width="200" height="200"><path d="M358.4 763.733333c-8.533333-4.266667-21.333333-4.266667-29.866667 8.533333-4.266667 8.533333-4.266667 21.333333 8.533333 29.866667 8.533333 4.266667 21.333333 4.266667 29.866667-8.533333C375.466667 785.066667 371.2 772.266667 358.4 763.733333zM652.8 260.266667c8.533333 4.266667 21.333333 4.266667 29.866667-8.533333 4.266667-8.533333 4.266667-21.333333-8.533333-29.866667-8.533333-4.266667-21.333333-4.266667-29.866667 8.533333C640 243.2 640 251.733333 652.8 260.266667zM192 490.666667c-12.8 0-21.333333 8.533333-21.333333 21.333333 0 12.8 8.533333 21.333333 21.333333 21.333333S213.333333 524.8 213.333333 512C213.333333 499.2 204.8 490.666667 192 490.666667zM341.333333 221.866667C328.533333 230.4 324.266667 243.2 332.8 251.733333c4.266667 8.533333 17.066667 12.8 29.866667 8.533333 8.533333-4.266667 12.8-17.066667 8.533333-29.866667C362.666667 221.866667 349.866667 217.6 341.333333 221.866667zM226.133333 648.533333C213.333333 657.066667 213.333333 669.866667 217.6 678.4c4.266667 8.533333 17.066667 12.8 29.866667 8.533333 8.533333-4.266667 12.8-17.066667 8.533333-29.866667C247.466667 648.533333 234.666667 644.266667 226.133333 648.533333zM247.466667 337.066667C234.666667 332.8 221.866667 337.066667 217.6 345.6 213.333333 354.133333 213.333333 366.933333 226.133333 375.466667c8.533333 4.266667 21.333333 4.266667 29.866667-8.533333C260.266667 358.4 256 345.6 247.466667 337.066667zM652.8 763.733333c-8.533333 4.266667-12.8 17.066667-8.533333 29.866667 4.266667 8.533333 17.066667 12.8 29.866667 8.533333 8.533333-4.266667 12.8-17.066667 8.533333-29.866667C674.133333 763.733333 661.333333 759.466667 652.8 763.733333zM768 337.066667c-8.533333 4.266667-12.8 17.066667-8.533333 29.866667 4.266667 8.533333 17.066667 12.8 29.866667 8.533333 8.533333-4.266667 12.8-17.066667 8.533333-29.866667C789.333333 337.066667 776.533333 332.8 768 337.066667zM819.2 490.666667c-12.8 0-21.333333 8.533333-21.333333 21.333333 0 12.8 8.533333 21.333333 21.333333 21.333333s21.333333-8.533333 21.333333-21.333333C840.533333 499.2 832 490.666667 819.2 490.666667zM507.733333 55.466667C251.733333 55.466667 46.933333 260.266667 46.933333 512c0 251.733333 204.8 456.533333 456.533333 456.533333S964.266667 763.733333 964.266667 512C964.266667 260.266667 759.466667 55.466667 507.733333 55.466667zM507.733333 930.133333c-230.4 0-418.133333-187.733333-418.133333-418.133333s187.733333-418.133333 418.133333-418.133333 418.133333 187.733333 418.133333 418.133333S738.133333 930.133333 507.733333 930.133333zM695.466667 490.666667l-106.666667 0c-8.533333-29.866667-29.866667-51.2-59.733333-59.733333L529.066667 200.533333c0-12.8-8.533333-21.333333-21.333333-21.333333s-21.333333 8.533333-21.333333 21.333333l0 230.4c-34.133333 8.533333-64 42.666667-64 81.066667 0 46.933333 38.4 85.333333 85.333333 85.333333 38.4 0 72.533333-25.6 81.066667-64l106.666667 0c12.8 0 21.333333-8.533333 21.333333-21.333333C712.533333 499.2 704 490.666667 695.466667 490.666667zM507.733333 554.666667c-21.333333 0-42.666667-17.066667-42.666667-42.666667 0-21.333333 17.066667-42.666667 42.666667-42.666667s42.666667 17.066667 42.666667 42.666667C546.133333 533.333333 529.066667 554.666667 507.733333 554.666667zM507.733333 802.133333c-12.8 0-21.333333 8.533333-21.333333 21.333333 0 12.8 8.533333 21.333333 21.333333 21.333333s21.333333-8.533333 21.333333-21.333333C529.066667 814.933333 516.266667 802.133333 507.733333 802.133333zM785.066667 648.533333c-8.533333-4.266667-21.333333-4.266667-29.866667 8.533333-4.266667 8.533333-4.266667 21.333333 8.533333 29.866667 8.533333 4.266667 21.333333 4.266667 29.866667-8.533333C802.133333 669.866667 797.866667 657.066667 785.066667 648.533333z" p-id="19528"></path></svg>

<svg viewBox="0 0 1024 1024" width="200" height="200"><path d="M358.4 763.733c-8.533-4.266-21.333-4.266-29.867 8.534-4.266 8.533-4.266 21.333 8.534 29.866 8.533 4.267 21.333 4.267 29.866-8.533 8.534-8.533 4.267-21.333-8.533-29.867zm294.4-503.466c8.533 4.266 21.333 4.266 29.867-8.534 4.266-8.533 4.266-21.333-8.534-29.866-8.533-4.267-21.333-4.267-29.866 8.533C640 243.2 640 251.733 652.8 260.267zM192 490.667c-12.8 0-21.333 8.533-21.333 21.333 0 12.8 8.533 21.333 21.333 21.333S213.333 524.8 213.333 512c0-12.8-8.533-21.333-21.333-21.333zm149.333-268.8c-12.8 8.533-17.066 21.333-8.533 29.866 4.267 8.534 17.067 12.8 29.867 8.534C371.2 256 375.467 243.2 371.2 230.4c-8.533-8.533-21.333-12.8-29.867-8.533zm-115.2 426.666c-12.8 8.534-12.8 21.334-8.533 29.867 4.267 8.533 17.067 12.8 29.867 8.533 8.533-4.266 12.8-17.066 8.533-29.866-8.533-8.534-21.333-12.8-29.867-8.534zm21.334-311.466c-12.8-4.267-25.6 0-29.867 8.533-4.267 8.533-4.267 21.333 8.533 29.867 8.534 4.266 21.334 4.266 29.867-8.534 4.267-8.533 0-21.333-8.533-29.866zM652.8 763.733C644.267 768 640 780.8 644.267 793.6c4.266 8.533 17.066 12.8 29.866 8.533 8.534-4.266 12.8-17.066 8.534-29.866-8.534-8.534-21.334-12.8-29.867-8.534zM768 337.067c-8.533 4.266-12.8 17.066-8.533 29.866 4.266 8.534 17.066 12.8 29.866 8.534 8.534-4.267 12.8-17.067 8.534-29.867-8.534-8.533-21.334-12.8-29.867-8.533zm51.2 153.6c-12.8 0-21.333 8.533-21.333 21.333 0 12.8 8.533 21.333 21.333 21.333S840.533 524.8 840.533 512c0-12.8-8.533-21.333-21.333-21.333zm-311.467-435.2c-256 0-460.8 204.8-460.8 456.533s204.8 456.533 456.534 456.533 460.8-204.8 460.8-456.533-204.8-456.533-456.534-456.533zm0 874.666C277.333 930.133 89.6 742.4 89.6 512S277.333 93.867 507.733 93.867 925.867 281.6 925.867 512 738.133 930.133 507.733 930.133zm187.734-439.466H588.8c-8.533-29.867-29.867-51.2-59.733-59.734v-230.4c0-12.8-8.534-21.333-21.334-21.333s-21.333 8.533-21.333 21.333v230.4c-34.133 8.534-64 42.667-64 81.067 0 46.933 38.4 85.333 85.333 85.333 38.4 0 72.534-25.6 81.067-64h106.667c12.8 0 21.333-8.533 21.333-21.333-4.267-12.8-12.8-21.333-21.333-21.333zm-187.734 64c-21.333 0-42.666-17.067-42.666-42.667 0-21.333 17.066-42.667 42.666-42.667S550.4 486.4 550.4 512c-4.267 21.333-21.333 42.667-42.667 42.667zm0 247.466c-12.8 0-21.333 8.534-21.333 21.334 0 12.8 8.533 21.333 21.333 21.333s21.334-8.533 21.334-21.333c0-8.534-12.8-21.334-21.334-21.334zm277.334-153.6c-8.534-4.266-21.334-4.266-29.867 8.534-4.267 8.533-4.267 21.333 8.533 29.866 8.534 4.267 21.334 4.267 29.867-8.533 8.533-8.533 4.267-21.333-8.533-29.867z"/></svg>
